X:1
T:Stabat Mater - Aichinger
T:#
%%score 1 2 3
L:1/8
Q:1/4=200
M:none
K:C
V:1 treble nm="Soprano I" snm="S"
V:2 treble nm="Soprano II"
V:3 treble-8 nm="Tenor" snm="T"
V:1
"^Stabat Mater""^Gregor Aichinger\n (1564-1628)" B12 B4 | B16 | E16 | e12 d4 | c8 B8 | %5
w: Sta- bat|Ma-|ter|do- lo-|ro- sa|
[M:4/2] z4 ^G8 A4 | B8 G8 | A4 G4 ^F8 | G8 z8 | E4 F4 G4 E4 | (F2 G2 A2 F2 G4 A4-) | %11
w: ju- xta|Cru- cem|la- cry- mo-|sa,|dum pen- de- bat|Fi\- * * * * *|
 A4 ^G4 A4 c4- | c4 d4 e8- | e8 d8 | c8 B8 | !fermata!A16 || e12 e4 | d4 c4 B4 c4 | A8 ^G8 | %19
w: * li- us, dum|* pen- de\-|* bat|Fi- li-|us.|Cu- ius|a- ni- mam ge-|men- tem,|
 ^G12 G4 | A4 A4 B8 | (^c4 d6 cB c4) | d8 z8 | e8 B4 d4- | d4 c4 B6 B2 | A12 c4 | G4 B8 A4 | %27
w: con- tri-|sta- tam et|do- len\- * * *|tem,|per tran- si\-|* vit gla- di-|us, per|tran- si- vit|
 (^G4 A8) G4 | !fermata!A16 || E12 ^F4 | ^G8 A8 | B4 c4 B8 | A4 d8 c4 | B6 B2 c4 B4 | A8 ^G8 | %35
w: gla\- * di-|us.|O quam|tri- stis|et af- fli-|cta, O quam|tri- stis et af-|fli- cta|
 A4 B4 c4 d4 | e8 e8 | (d4 c4 B4 c4- | c2 BA B4) c4 A4- | A4 c4 B4 A4 | ^G6 G2 A4 c4- | %41
w: fu- it il- la|be- ne-|di\- * * *|* * * * cta Ma\-|* ter U- ni-|ge- ni- ti, Ma\-|
 c4 e4 d4 c4 | (B4 c6 B2 A4- | A4) ^G4 G16 || A12 B4 | c4 A4 c4 B4 | A8 E8 | z4 E8 D4 | %48
w: * ter U- ni-|ge\- * * *|* ni- ti!|E- ja|Ma- ter fons a-|mo- ris,|me sen-|
 E4 F4 G4 E4 | (F6 G2 A2 B2 c4- | c4 B4 A8-) | A8 ^G8 | c12 B4 | d4 c4 _B8 | A8 G8 | E12 ^F4 | %56
w: ti- re vim do-|lo\- * * * *||* ris|fac, ut|te- cum lu-|ge- am,|fac ut|
 G8 ^F4 (A4- | A2 G2 G8) ^F4 | !fermata!G16 || B12 B4 | B16 | E16 | e12 d4 | c8 B8 | z4 G8 A4 | %65
w: te- cum lu\-|* * * ge-|am.|Quan- do|cor-|pus|mo- ri-|e- tur,|fac ut|
 B8 G8 | A4 G4 ^F8 | G8 z8 | E4 F4 G4 E4 | (F2 G2 A2 F2 G4 A4- | A4) ^G4 A4 c4- | c4 d4 e8- | %72
w: a- ni-|mae do- ne-|tur|pa- ra- di- si|glo\- * * * * *|* ri- a, pa\-|* ra- di\-|
 e8 d8 | c8 B8 | !fermata!A16 |] %75
w: * si|glo- ri-|a.|
V:2
 z8 ^G8- | G4 ^G4 G8- | G8 A4 c4- | c4 B4 A8- | A8 ^G8 |[M:4/2] B8 c4 d4- | d4 B8 c4- | c4 B4 A8 | %8
w: Sta\-|* bat Ma\-|* ter do\-|* lo- ro\-|* sa|ju- xta Cru\-|* cem la\-|* cry- mo-|
 B8 c4 d4 | e16 | d8 c8 | B8 A8 | z8 E4 F4 | G4 E4 (F2 G2 A2 F2 | G4 A8) ^G4 | !fermata!A16 || %16
w: sa, dum pen-|de-|bat Fi-|li- us,|dum pen-|de- bat Fi\- * * *|* * li-|us.|
 c12 c4 | B4 A4 G4 E4 | F8 E4 B4- | B4 B4 ^c8 | d12 e4- | e4 f4 e8 | d8 z4 c4 | G4 B8 A4 | %24
w: Cu- ius|a- ni- mam ge-|men- tem, con\-|* tri- sta-|tam et|* do- len-|tem, per|tran- si- vit|
 (^G4 A8) G4 | A8 z8 | e8 B4 d4- | d4 c4 B6 B2 | !fermata!A16 || z8 E8- | E4 E4 ^F8 | ^G4 A8 G4 | %32
w: gla\- * di-|us,|per tran- si\-|* vit gla- di-|us.|O|* quam tri-|stis et af-|
 A8 B4 c4 | d4 e8 d4 | c8 B4 (c4- | c4 B4 A8) | G8 G4 A4 | B4 c4 d4 e4 | d8 e4 c4- | c4 e4 d4 c4 | %40
w: fli- cta, O|quam tri- stis|et af- fli\-||cta fu- it|il- la be- ne-|di- cta Ma\-|* ter U- ni-|
 B6 B2 c4 A4- | A4 c4 B4 A4 | G8 A8 | B24 || z16 | A12 B4 | c4 A4 c4 B4 | (A8 G8) | c8 B4 G4 | %49
w: ge- ni- ti, Ma\-|* ter U- ni-|ge- ni-|ti!||E- ja|Ma- ter fons a-|mo\- *|ris, me sen-|
 A12 G4 | A4 B4 (c4 e4-) | (e2 dc d4) e4 E4- | E4 ^F4 G8 | ^F4 (A6 G2 G4- | G4) ^F4 G8 | z8 c8- | %56
w: ti- re|vim do- lo\- *|* * * * ris fac,|* ut te-|cum lu\- * *|* ge- am,|fac|
 c4 B4 d4 c4 | _B8 A8 | !fermata!G16 || z8 ^G8- | G4 ^G4 G8- | G8 A4 c4- | c4 B4 A8- | A8 ^G8 | %64
w: * ut te- cum|lu- ge-|am.|Quan\-|* do cor\-|* pus mo\-|* ri- e\-|* tur,|
 B8 c4 d4- | d4 B8 c4- | c4 B4 A8 | B8 c4 d4 | e16 | d8 c8 | B8 A8 | z8 E4 F4 | %72
w: fac ut a\-|* ni- mae|* do- ne-|tur pa- ra-|di-|si glo-|ri- a,|pa- ra-|
 G4 E4 (F2 G2 A2 F2 | G4 A8) ^G4 | !fermata!A16 |] %75
w: di- si glo\- * * *|* * ri-|a.|
V:3
 z8 E8- | E4 E4 E8 | E8 A8- | A4 G4 F8 | E16 |[M:4/2][K:treble-8] z4 E8 ^F4 | G8 E8 | F4 G4 D8 | %8
w: Sta\-|* bat Ma-|ter do\-|* lo- ro-|sa|ju- xta|Cru- cem|la- cry- mo-|
 G8 A4 B4 | c8 C8 | D8 E8- | E4 E4 A8 | A4 B4 c8 | C8 (D8 | E12) E4 | !fermata!A16 || A12 c4 | %17
w: sa, dum pen-|de- bat|Fi\- *|* li- us,|dum pen- de-|bat Fi\-|* li-|us.|Cu- ius|
 G4 A4 E4 A4 | D8 E8 | E12 E4 | ^F8 G4 G4 | A8 A8 | D8 A8 | E4 G8 F4 | E12 E4 | A8 A8 | E4 G8 F4 | %27
w: a- ni- mam ge-|men- tem,|con- tri-|sta- tam et|do- len-|tem, per|tran- si- vit|gla- di-|us, per|tran- si- vit|
 E12 E4 | !fermata!A16 || z16 | z16 | E12 E4 | ^F8 ^G4 A4- | A4 ^G4 A8- | A8 E8 | F4 G4 A4 B4 | %36
w: gla- di-|us.|||O quam|tri- stis et|* af- fli\-|* cta|fu- it il- la|
 c4 C4 (E4 F4 | G16- | G8) C4 F4- | F4 C4 G4 A4 | E6 E2 A4 F4- | F4 C4 D8 | E8 F6 F2 | %43
w: be- ne- di\- *||* cta Ma\-|* ter U- ni-|ge- ni- ti, Ma\-|* ter U-|ni- ge- ni-|
 !fermata!E24 || z16 | z16 | A12 B4 | c4 A4 c4 B4 | A8 G8 | z4 F8 E4 | F4 G4 A4 G4 | F8 E8 | %52
w: ti!|||E- ja|Ma- ter fons a-|mo- ris,|me sen-|ti- re vim do-|lo- ris|
 C4 D4 E4 G4 | D16 | D8 G8 | C12 D4 | E4 G4 D8- | D8 D8 | !fermata!G16 || z8 E8- | E4 E4 E8 | %61
w: fac, ut te- cum|lu-|ge- am,|fac ut|te- cum lu\-|* ge-|am.|Quan\-|* do cor-|
 E8 A8- | A4 G4 F8 | E16 | z4 E8 ^F4 | G8 E8 | F4 G4 D8 | G8 A4 B4 | c8 C8 | (D8 E8- | E4) E4 A8 | %71
w: pus mo\-|* ri- e-|tur,|fac ut|a- ni-|mae do- ne-|tur pa- ra-|di- si|glo\- *|* ri- a,|
 A4 B4 c8 | C8 (D8 | E12) E4 | !fermata!A16 |] %75
w: pa- ra- di-|si glo\-|* ri-|a.|

